X: 26
T: Shandon Bells
B: begged borrowed and stolen
B: nick
B: to learn
M:6/8
L:1/8
R: jig
Q: 3/8=100
K:Dmajor
V:1 
|:"D"AFD DFA|"D"ded cBA|"G"BGE EFA|"A"B2A Bcd|
 "D"AFD DFA|"D"ded cBA|"G"Bcd "A"ecA|d3 d2B:|
 |:"D"f2d dcd|f2a afd|"A"cAA eAA|cAc efg|
 "D"f2d dcd|faa afd|"G"Bcd "A"ecA|"D"d2d d3:|
% abcbook-tune_id 62828a3a0c483609215b3594


% abcbook-boost 0
% abcbook-tablature 
% abcbook-transpose 
% abcbook-lastupdated 1665491534574
% abcbook-soundfonts 
% abcbook-repeats 3
% abc-sessionorg_id 1200
% abc-sessionorg_setting 0
% abc-sessionorg_setting_id 1200
% abc-boost 0

